packages/kaspersky-hexa-ui-icons/src/iconsSVGs/24/Scan.svg

<svg width="24" height="24" viewBox="0 0 24 24" fill="none" xmlns="http://www.w3.org/2000/svg">
<path d="M6 3C4.34315 3 3 4.34315 3 6V7.5C3 8.05228 3.44772 8.5 4 8.5C4.55228 8.5 5 8.05228 5 7.5V6C5 5.44772 5.44772 5 6 5H7.5C8.05228 5 8.5 4.55228 8.5 4C8.5 3.44772 8.05228 3 7.5 3H6Z" fill="black"/>
<path d="M16.5 3C15.9477 3 15.5 3.44772 15.5 4C15.5 4.55228 15.9477 5 16.5 5H18C18.5523 5 19 5.44772 19 6V7.5C19 8.05228 19.4477 8.5 20 8.5C20.5523 8.5 21 8.05228 21 7.5V6C21 4.34315 19.6569 3 18 3H16.5Z" fill="black"/>
<path d="M5 16.5C5 15.9477 4.55228 15.5 4 15.5C3.44772 15.5 3 15.9477 3 16.5V18C3 19.6569 4.34315 21 6 21H7.5C8.05228 21 8.5 20.5523 8.5 20C8.5 19.4477 8.05228 19 7.5 19H6C5.44772 19 5 18.5523 5 18V16.5Z" fill="black"/>
<path d="M21 16.5C21 15.9477 20.5523 15.5 20 15.5C19.4477 15.5 19 15.9477 19 16.5V18C19 18.5523 18.5523 19 18 19H16.5C15.9477 19 15.5 19.4477 15.5 20C15.5 20.5523 15.9477 21 16.5 21H18C19.6569 21 21 19.6569 21 18V16.5Z" fill="black"/>
<path d="M4 11C3.44772 11 3 11.4477 3 12C3 12.5523 3.44772 13 4 13H20C20.5523 13 21 12.5523 21 12C21 11.4477 20.5523 11 20 11H4Z" fill="black"/>
</svg>

<svg xmlns="http://www.w3.org/2000/svg" width="24" height="24" fill="none" viewBox="0 0 24 24"><path fill="#000" fill-rule="evenodd" d="M16.5 3c-.5523 0-1 .4477-1 1s.4477 1 1 1H18c.5523 0 1 .4477 1 1v1.5c0 .5523.4477 1 1 1s1-.4477 1-1V6c0-1.6569-1.3431-3-3-3zM3 6c0-1.6569 1.3431-3 3-3h1.5c.5523 0 1 .4477 1 1s-.4477 1-1 1H6c-.5523 0-1 .4477-1 1v1.5c0 .5523-.4477 1-1 1s-1-.4477-1-1zm0 6c0-.5523.4477-1 1-1h16c.5523 0 1 .4477 1 1s-.4477 1-1 1H4c-.5523 0-1-.4477-1-1m2 4.5c0-.5523-.4477-1-1-1s-1 .4477-1 1V18c0 1.6569 1.3431 3 3 3h1.5c.5523 0 1-.4477 1-1s-.4477-1-1-1H6c-.5523 0-1-.4477-1-1zm16 0c0-.5523-.4477-1-1-1s-1 .4477-1 1V18c0 .5523-.4477 1-1 1h-1.5c-.5523 0-1 .4477-1 1s.4477 1 1 1H18c1.6569 0 3-1.3431 3-3z"/></svg>
